X:1
T:VI
T:VI Play both parts simultaneously
%%score 1 2
L:1/8
Q:3/8=30
M:3/4
K:Bb
V:1 treble nm="Violin" snm="Vln."
V:2 treble nm="Violin" snm="Vln."
V:1
|:!mp! d3 g ^fe | d3 d cB | A3 c AG | D3 C B,A, | d3 d ee | e3 e dd | c3 _d cB | FE D_G FE | %8
 D2 B=E GB | fb B2 EC | B3 F G_G | _G2 FF =G_G | _G2 FB Bc | cd df fa | bb c'^c' =e'c' | %15
 d'b fF EC | B,B, B,B, A,A, | B,2 B,2 A,2 :| G,3 G, G,G, | G,G, G,G, G,G, | G,3 G, G,G, | %21
 cd ed cB | A3 A AA | AA AA AA | A3 A AA | d=e fe dc | c2 =B_B BB | ed _dc _cB | _d2 cd cc | %29
 f=e _ed _dc | e2 de dd | gf ec ec | fe dB dB | ed cA cA | dc BF EE | D2 DD DD | DD DD DD | %37
 DD DD DD | d'3 g' ^f'e' | d'3 d' c'b | a3 c' ag | b2 aa g^f | f2 =e_e de | e2 ee dd | e^c dB cA | %45
 G,G, G,G, G,G, | G,G, DD DD | GF =E_E ^F2 | GF =E_E ^F2 | GB GB GB | G2 G2 G2 | G2 G2 G z |] %52
V:2
|:!mf! !////-!G3/2 B3/2 !///-!G/e/ !///-!G/d/!///-!G/c/ | %1
 !////-!G3/2 B3/2 !///-!F/A/ !///-!E/G/!///-!D/F/ | %2
 !////-!C3/2 E3/2 !///-!C/E/ !///-!^C/=E/!///-!C/E/ | %3
 !///-!G/B/!///-!G/B/ !///-!^F/A/!///-!E/A/ !///-!D/G/!///-!D/F/ | %4
 !////-!G3/2 B3/2 !///-!G/=B/ !///-!G/c/!///-!_G/c/ | %5
 !////-!F3/2 c3/2 !///-!^F/c/ !///-!G/B/!///-!=F/A/ | %6
 !////-!E3/2 G3/2 !///-!E/G/ !///-!=E/G/!///-!E/G/ | %7
 !///-!A/c/!///-!A/f/ !///-!B/f/!///-!_A/c/ !///-!B/d/!///-!A/f/ | %8
 !///-!B/f/!///-!B/^f/ !///-!E/G/!///-!B/_d/ !///-!d/=e/!///-!e/g/ | %9
 !///-!B/d/!///-!d/f/ !///-!D/F/!///-!D/F/ !///-!A/c/!///-!E/A/ | %10
 !////-!B,3/2 D3/2 !///-!B,/D/ !///-!B,/E/!///-!B,/E/ | %11
 !///-!A,/E/!///-!A,/E/ !///-!B,/D/!///-!B,/D/ !///-!B,/E/!///-!B,/E/ | %12
 !///-!A,/E/!///-!A,/E/ !///-!B,/D/!///-!D/_A/ !///-!E/G/!///-!=E/B/ | %13
 !///-!F/A/!///-!^F/c/ !///-!G/B/!///-!A/e/ !///-!B/d/!///-!c/e/ | %14
 !///-!d/f/!///-!e/g/ !///-!=e/g/!///-!e/g/ !///-!g/b/!///-!e/g/ | %15
 !///-!f/b/!///-!d/g/ !///-!B/d/!///-!B/d/ !///-!A/c/!///-!E/A/ | %16
 !///-!D/B/!///-!D/A/ !///-!D/_A/!///-!E/G/ !///-!E/_G/!///-!E/F/ | %17
 !///-!E/F/!///-!E/F/ !///-!D/F/!///-!D/F/ !///-!D/^F/!///-!D/F/ :| %18
 !///-!G/=B/!///-!G/B/ !///-!G/B/!///-!G/B/ !///-!A/c/!///-!B/d/ | %19
 !///-!c/e/!///-!d/f/ !///-!e/g/!///-!e/g/ !///-!d/f/!///-!c/e/ | %20
 !///-!=B/d/!///-!B/d/ !///-!B/d/!///-!F/_A/ !///-!E/G/!///-!D/F/ | %21
 !///-!C/E/!///-!D/F/ !///-!E/G/!///-!D/F/ !///-!C/E/!///-!B,/D/ | %22
 !///-!A/^c/!///-!A/c/ !///-!A/c/!///-!A/c/ !///-!B/d/!///-!c/=e/ | %23
 !///-!d/f/!///-!=e/g/ !///-!f/a/!///-!f/a/ !///-!e/g/!///-!d/f/ | %24
 !///-!^c/=e/!///-!c/e/ !///-!c/e/!///-!G/B/ !///-!F/A/!///-!=E/G/ | %25
 !///-!D/F/!///-!=E/G/ !///-!F/A/!///-!E/G/ !///-!D/F/!///-!D/^F/ | %26
 !///-!D/G/!///-!D/G/ !///-!D/G/!///-!D/G/ !///-!D/_A/!///-!D/F/ | %27
 !///-!E/G/!///-!E/=B/ !///-!E/_B/!///-!E/A/ !///-!D/_A/!///-!E/G/ | %28
 !///-!=E/B/!///-!E/B/ !///-!E/B/!///-!E/B/ !///-!E/B/!///-!E/G/ | %29
 !///-!F/A/!///-!F/^c/ !///-!F/=c/!///-!F/=B/ !///-!=E/_B/!///-!F/A/ | %30
 !///-!^F/c/!///-!F/c/ !///-!F/c/!///-!F/c/ !///-!F/c/!///-!F/A/ | %31
 !///-!G/=B/!///-!G/B/ !///-!G/c/!///-!C/E/ !///-!E/G/!///-!C/E/ | %32
 !///-!F/A/!///-!F/A/ !///-!F/d/!///-!B,/D/ !///-!D/F/!///-!B,/D/ | %33
 !///-!E/G/!///-!E/G/ !///-!E/A/!///-!A,/C/ !///-!C/E/!///-!A,/C/ | %34
 !///-!D/^F/!///-!D/F/ !///-!D/G/!///-!B/d/ !///-!B/d/!///-!B/^c/ | %35
 !///-!d/^f/!///-!d/f/ !///-!g/b/!///-!b/d'/ !///-!a/c'/!///-!g/b/ | %36
 !///-!^f/a/!///-!e/g/ !///-!d/f/!///-!c/e/ !///-!B/d/!///-!G/B/ | %37
 !///-!^F/A/!///-!E/G/ !///-!D/F/!///-!C/E/ !///-!B,/D/!///-!A,/C/ | %38
 !///-!g/b/!///-!g/b/ !///-!g/b/!///-!g/e'/ !///-!g/d'/!///-!g/c'/ | %39
 !///-!g/b/!///-!g/b/ !///-!g/b/!///-!f/a/ !///-!e/g/!///-!d/f/ | %40
 !///-!c/e/!///-!c/e/ !///-!c/e/!///-!c/e/ !///-!c/e/!///-!^c/=e/ | %41
 !///-!d/g/!///-!d/g/ !///-!d/^f/!///-!c/f/ !///-!B/d/!///-!A/c/ | %42
 !///-!_A/=B/!///-!A/B/ !///-!G/c/!///-!G/c/ !///-!G/B/!///-!G/c/ | %43
 !///-!^F/c/!///-!F/c/ !///-!=F/c/!///-!^F/c/ !///-!G/B/!///-!=F/_A/ | %44
 !///-!E/G/!///-!E/G/ !///-!D/B/!///-!D/G/ !///-!D/A/!///-!D/^F/ | %45
 !///-!G/B/!///-!B/d/ !///-!G/B/!///-!B/d/ !///-!=B/d/!///-!d/f/ | %46
 !///-!e/g/!///-!c/e/ !///-!B/d/!///-!G/B/ !///-!A/c/!///-!^F/A/ | %47
 !///-!G,/B,/!///-!G,/=B,/ !///-!G,/C/!///-!G,/C/ !///-!G,/A,/!///-!G,/A,/ | %48
 !///-!G,/B,/!///-!G,/=B,/ !///-!G,/C/!///-!G,/C/ !///-!G,/A,/!///-!G,/A,/ | %49
 !///-!G,/B,/!///-!G,/D/ !///-!G,/B,/!///-!G,/D/ !///-!G,/B,/!///-!G,/D/ | %50
 !///-!G,/B,/!///-!G,/B,/ !///-!G,/B,/!///-!G,/B,/ !///-!G,/B,/!///-!G,/B,/ | %51
 !///-!G,/=B,/!///-!G,/B,/ !///-!G,/B,/!///-!G,/B,/ !///-!G,/B,/ z |] %52

